swiss/communes/3401.svg

<?xml version="1.0" encoding="UTF-8" standalone="no"?>
<svg
   xmlns:dc="http://purl.org/dc/elements/1.1/"
   xmlns:cc="http://web.resource.org/cc/"
   xmlns:rdf="http://www.w3.org/1999/02/22-rdf-syntax-ns#"
   xmlns:svg="http://www.w3.org/2000/svg"
   xmlns="http://www.w3.org/2000/svg"
   xmlns:xlink="http://www.w3.org/1999/xlink"
   xmlns:sodipodi="http://sodipodi.sourceforge.net/DTD/sodipodi-0.dtd"
   xmlns:inkscape="http://www.inkscape.org/namespaces/inkscape"
   height="763"
   width="603"
   version="1.0"
   id="svg20"
   sodipodi:version="0.32"
   inkscape:version="0.44.1"
   sodipodi:docname="Degersheim-coat of arms.svg"
   sodipodi:docbase="F:\Mis Documentos\Mis imágenes\Encyclopédie\Escudos de Suiza">
  <metadata
     id="metadata31">
    <rdf:RDF>
      <cc:Work
         rdf:about="">
        <dc:format>image/svg+xml</dc:format>
        <dc:type
           rdf:resource="http://purl.org/dc/dcmitype/StillImage" />
        <dc:date>07-AUG-2006</dc:date>
        <dc:creator>
          <cc:Agent>
            <dc:title>Jérôme BLUM (wagner51)</dc:title>
          </cc:Agent>
        </dc:creator>
        <cc:license
           rdf:resource="http://creativecommons.org/licenses/GPL/2.0/" />
        <dc:coverage />
        <dc:description>Gabarit pour le Projet:Blasons de WIkipédia</dc:description>
        <dc:subject>
          <rdf:Bag>
            <rdf:li>blason suisse modèle gabarit projet blasons</rdf:li>
          </rdf:Bag>
        </dc:subject>
        <dc:language>fr</dc:language>
        <dc:title>Gabrit d'un blason suisse</dc:title>
      </cc:Work>
      <cc:License
         rdf:about="http://creativecommons.org/licenses/GPL/2.0/">
        <cc:permits
           rdf:resource="http://web.resource.org/cc/Reproduction" />
        <cc:permits
           rdf:resource="http://web.resource.org/cc/Distribution" />
        <cc:requires
           rdf:resource="http://web.resource.org/cc/Notice" />
        <cc:permits
           rdf:resource="http://web.resource.org/cc/DerivativeWorks" />
        <cc:requires
           rdf:resource="http://web.resource.org/cc/ShareAlike" />
        <cc:requires
           rdf:resource="http://web.resource.org/cc/SourceCode" />
      </cc:License>
    </rdf:RDF>
  </metadata>
  <defs
     id="defs29">
    <linearGradient
       id="linearGradient2893">
      <stop
         style="stop-color:#ffffff;stop-opacity:0.3137255;"
         offset="0"
         id="stop2895" />
      <stop
         id="stop2897"
         offset="0.19"
         style="stop-color:#ffffff;stop-opacity:0.25098041;" />
      <stop
         style="stop-color:#6b6b6b;stop-opacity:0.1254902;"
         offset="0.60000002"
         id="stop2901" />
      <stop
         style="stop-color:#000000;stop-opacity:0.1254902;"
         offset="1"
         id="stop2899" />
    </linearGradient>
    <linearGradient
       id="linearGradient2955">
      <stop
         style="stop-color:white;stop-opacity:0;"
         offset="0"
         id="stop2965" />
      <stop
         style="stop-color:black;stop-opacity:0.64583331;"
         offset="1"
         id="stop2959" />
    </linearGradient>
    <radialGradient
       inkscape:collect="always"
       xlink:href="#linearGradient2893"
       id="radialGradient3236"
       gradientUnits="userSpaceOnUse"
       gradientTransform="matrix(1.215027,1.531577e-24,1.464684e-23,1.266667,-839.1924,-490.4894)"
       cx="858.04236"
       cy="579.93323"
       fx="858.04236"
       fy="579.93323"
       r="300" />
  </defs>
  <sodipodi:namedview
     inkscape:window-height="682"
     inkscape:window-width="1024"
     inkscape:pageshadow="2"
     inkscape:pageopacity="0.0"
     guidetolerance="10.0"
     gridtolerance="10.0"
     objecttolerance="10.0"
     borderopacity="1.0"
     bordercolor="#666666"
     pagecolor="#ffffff"
     id="base"
     inkscape:zoom="0.48301887"
     inkscape:cx="634.19937"
     inkscape:cy="325.50997"
     inkscape:window-x="-4"
     inkscape:window-y="-4"
     inkscape:current-layer="layer2"
     showgrid="true" />
  <desc
     id="desc22">Coat of Arms of Canton of Freiburg (Fribourg)</desc>
  <g
     inkscape:groupmode="layer"
     id="layer1"
     inkscape:label="Fond écu"
     sodipodi:insensitive="true">
    <path
       id="path1899"
       d="M 1.5,1.49998 L 1.5,460.3679 C 1.5,626.6785 135.81456,761.5 301.49999,761.5 C 467.18543,761.5 601.5,626.6785 601.5,460.3679 L 601.5,1.49998 L 1.5,1.49998 z "
       style="fill:#fcef3c;fill-opacity:1" />
    <path
       style="opacity:1;fill:black;fill-opacity:1;fill-rule:evenodd;stroke:black;stroke-width:2.99587655;stroke-linecap:square;stroke-linejoin:miter;stroke-miterlimit:4;stroke-dasharray:none;stroke-opacity:1"
       d="M 1.5,1.5 L 1.5,460.375 C 1.5,626.68555 135.81461,761.5 301.5,761.5 C 301.54175,761.5 301.58325,761.50002 301.625,761.5 L 301.625,1.5 L 1.5,1.5 z "
       id="rect8151" />
  </g>
  <g
     inkscape:groupmode="layer"
     id="layer2"
     inkscape:label="Meubles"
     sodipodi:insensitive="true">
    <g
       id="g9928">
      <path
         id="rect1939"
         d="M 421.83797,72.326886 L 421.83797,171.03318 L 360.52701,171.03318 L 360.52701,230.77876 L 421.83797,230.77876 L 421.83797,289.13288 L 324.43616,289.13288 L 324.43616,347.66094 L 421.83797,347.66094 L 421.83797,656.56384 L 480.10513,656.56384 L 480.10513,347.66094 L 574.72403,347.66094 L 574.72403,289.13288 L 480.10513,289.13288 L 480.10513,230.77876 L 538.63318,230.77876 L 538.63318,171.03318 L 480.10513,171.03318 L 480.10513,72.326886 L 421.83797,72.326886 z "
         style="fill:black;fill-opacity:1;fill-rule:evenodd;stroke:black;stroke-width:2.87231493;stroke-linecap:square;stroke-linejoin:miter;stroke-miterlimit:4;stroke-dasharray:none;stroke-opacity:1" />
      <path
         sodipodi:nodetypes="csccccccccccccccccccccccccccccccccccccccccccccccscccccccccccccssssscsccscsscsccsscssss"
         id="path4605"
         d="M 165.05319,562.679 C 163.652,515.7911 160.06588,439.67949 162.25233,396.30351 C 162.52339,390.9261 164.98289,381.91746 174.12987,385.10002 C 204.29869,407.63541 226.17801,406.93086 247.52197,389.08423 C 228.84225,379.52474 231.03332,367.96456 174.63911,375.67893 L 203.74133,353.96083 C 245.64031,373.62436 265.55842,362.64662 287.2286,353.96083 C 267.95395,340.35825 250.24833,330.27215 208.99863,348.35908 C 216.08949,343.32012 221.42007,338.14116 229.44161,333.23792 C 257.98691,327.01912 291.63278,304.05673 294.35808,276.74938 C 269.48241,280.63744 244.02413,280.50572 225.71407,329.69648 L 206.96163,342.3379 C 233.42144,308.05404 239.13537,288.14904 225.96867,265.89033 C 189.87343,296.33836 205.45393,324.06924 201.44972,346.66652 L 171.32901,371.69475 C 196.72261,336.78062 187.91003,317.56917 181.42418,299.99521 C 153.73079,322.06735 160.10139,360.87352 164.54395,375.25949 C 160.92906,378.75115 157.31414,380.0617 153.69926,375.44644 L 154.70338,292.95554 C 183.49291,283.48048 206.74094,267.22304 219.43824,226.94755 C 193.85705,231.8733 171.31624,237.97895 155.72187,282.18626 L 152.74257,283.20965 L 153.43026,246.20921 C 179.31796,230.16924 205.69588,215.10973 220.36696,176.63648 C 198.16165,179.68919 163.051,193.77453 156.48575,237.38716 L 152.8186,238.36945 L 153.9395,194.2806 C 178.48807,179.22061 203.79081,165.70327 213.8365,120.9783 C 190.81257,129.52795 168.11152,139.12704 155.72187,182.23823 L 153.08657,182.1509 L 152.52687,167.12681 C 173.97845,125.42851 168.31281,96.980132 148.08315,64.391405 C 123.96009,101.87908 130.3118,135.30344 146.68251,167.39194 L 146.81002,183.76596 L 144.35594,184.22163 C 131.55128,146.10302 111.64686,126.61753 88.350991,122.16162 C 96.185102,150.32472 92.47504,179.87008 146.04614,193.86116 L 145.02766,238.57048 L 142.18327,238.31757 C 130.97241,192.02319 106.47641,189.73575 85.04086,177.31056 C 89.873214,211.52317 108.89495,238.65942 144.51841,246.71845 L 145.02766,284.13347 L 141.68455,283.29779 C 126.75833,246.713 106.71791,237.9475 78.51043,228.72992 C 86.115341,265.21558 108.31914,286.00742 143.08045,293.29995 L 142.4814,378.22518 C 139.45585,382.83635 136.4303,380.74816 133.40472,377.29647 C 137.22722,351.99935 142.66633,326.56467 115.506,303.90439 C 111.10931,323.33583 110.2618,347.24739 124.91922,366.95095 C 126.75062,369.41287 123.63243,369.89752 125.51136,372.71324 L 100.48317,348.61372 C 107.74035,306.40773 90.637763,286.53155 74.092033,266.14494 C 62.786966,295.8582 77.2166,321.28235 93.952709,346.3221 L 78.799463,334.59036 C 57.800661,303.1023 48.010861,278.05164 6.3914545,278.53175 C 25.282036,319.95535 38.215689,330.18671 74.803957,339.79301 L 91.316681,352.6877 C 43.129054,332.94831 26.520124,343.00521 12.247808,358.96352 C 41.510375,371.58001 69.455345,376.10296 93.986911,359.65764 L 99.719286,360.23665 L 122.4559,377.71593 C 93.892848,375.61036 65.329822,377.61068 36.766795,395.70446 C 66.495499,401.00888 97.140865,419.90995 123.98842,388.82959 C 126.5598,385.85282 132.82911,379.44623 134.16861,395.70446 C 137.74077,439.06171 134.64317,514.22783 134.88879,563.02851 C 134.89937,565.00999 134.25276,574.39608 125.1126,583.19575 C 111.8713,595.94378 86.389263,583.34288 78.51043,590.50809 C 62.716503,604.87152 65.182105,617.28811 76.982696,624.5232 C 86.634131,633.21712 81.15155,634.72033 75.299203,637.83917 C 64.227957,643.7393 72.970382,648.8879 74.037015,654.05999 C 77.120951,639.83719 104.39493,649.18587 93.59516,624.64604 C 88.072255,609.40836 96.59035,603.49571 106.33952,604.42264 C 123.17662,606.02345 124.45686,617.83481 143.75453,590.50809 C 140.70811,605.74775 123.00285,620.38368 136.46022,629.96011 C 140.26229,632.66571 142.14709,639.44602 139.3825,643.41283 C 131.79028,654.30675 137.60091,657.01553 143.33509,661.60855 C 143.49374,647.0317 160.18844,648.04824 152.54671,633.38228 C 141.29146,611.78132 163.46415,610.25648 155.12282,592.96454 C 166.19816,607.45203 172.94507,614.18592 185.90853,605.92961 C 209.26471,591.56081 209.7038,606.47659 205.78969,613.13693 C 201.78767,619.94687 193.0654,624.32339 215.87351,631.41282 C 231.90885,636.39709 221.78012,647.84643 221.89469,656.35125 C 226.89152,655.10233 249.50187,638.45152 228.05463,628.44034 C 205.91136,618.10422 225.2607,614.01641 224.69555,606.71425 C 221.75446,568.71299 191.45534,593.00116 174.89375,586.01464 C 161.91557,580.5398 165.29152,570.65401 165.05319,562.679 z "
         style="fill:#fcef3c;fill-opacity:1;fill-rule:evenodd;stroke:black;stroke-width:2.78290892px;stroke-linecap:butt;stroke-linejoin:miter;stroke-opacity:1" />
    </g>
  </g>
  <g
     inkscape:groupmode="layer"
     id="layer3"
     inkscape:label="Reflet final"
     style="display:inline"
     sodipodi:insensitive="true">
    <path
       style="fill:url(#radialGradient3236);fill-opacity:1"
       d="M 1.5,1.5 L 1.5,460.3679 C 1.5,626.67854 135.81454,761.5 301.49993,761.5 C 467.1854,761.5 601.5,626.67854 601.5,460.3679 L 601.5,1.5 L 1.5,1.5 z "
       id="path2346" />
  </g>
  <g
     inkscape:groupmode="layer"
     id="layer4"
     inkscape:label="Contour final"
     style="display:inline"
     sodipodi:insensitive="true">
    <path
       style="fill:none;fill-opacity:1;stroke:black;stroke-width:3;stroke-miterlimit:4;stroke-dasharray:none;stroke-opacity:1"
       d="M 1.5,1.5 L 1.5,460.36794 C 1.5,626.67854 135.81454,761.5 301.49993,761.5 C 467.1854,761.5 601.5,626.67854 601.5,460.36794 L 601.5,1.5 L 1.5,1.5 z "
       id="path3239" />
  </g>
</svg>

<svg xmlns="http://www.w3.org/2000/svg" xmlns:xlink="http://www.w3.org/1999/xlink" height="763" width="603" version="1.0"><defs><radialGradient xlink:href="#a" id="b" gradientUnits="userSpaceOnUse" gradientTransform="matrix(1.21503 0 0 1.26667 -839.192 -490.49)" cx="858.042" cy="579.933" fx="858.042" fy="579.933" r="300"/><linearGradient id="a"><stop style="stop-color:#fff;stop-opacity:.3137255" offset="0"/><stop offset=".19" style="stop-color:#fff;stop-opacity:.25098041"/><stop style="stop-color:#6b6b6b;stop-opacity:.1254902" offset=".6"/><stop style="stop-color:#000;stop-opacity:.1254902" offset="1"/></linearGradient></defs><path d="M1.5 1.5v458.868c0 166.31 134.315 301.132 300 301.132s300-134.822 300-301.132V1.5H1.5z" style="fill:#fcef3c;fill-opacity:1"/><path style="opacity:1;fill:#000;fill-opacity:1;fill-rule:evenodd;stroke:#000;stroke-width:2.99587655;stroke-linecap:square;stroke-linejoin:miter;stroke-miterlimit:4;stroke-dasharray:none;stroke-opacity:1" d="M1.5 1.5v458.875c0 166.31 134.315 301.125 300 301.125h.125V1.5H1.5z"/><path d="M421.838 72.327v98.706h-61.311v59.746h61.311v58.354h-97.402v58.528h97.402v308.903h58.267V347.66h94.619v-58.528h-94.619v-58.354h58.528v-59.746h-58.528V72.327h-58.267z" style="fill:#000;fill-opacity:1;fill-rule:evenodd;stroke:#000;stroke-width:2.87231493;stroke-linecap:square;stroke-linejoin:miter;stroke-miterlimit:4;stroke-dasharray:none;stroke-opacity:1"/><path d="M165.053 562.679c-1.401-46.888-4.987-123-2.8-166.375.27-5.378 2.73-14.387 11.877-11.204 30.169 22.535 52.048 21.83 73.392 3.984-18.68-9.56-16.489-21.12-72.883-13.405l29.102-21.718c41.9 19.663 61.817 8.686 83.488 0-19.275-13.603-36.98-23.689-78.23-5.602 7.09-5.039 12.421-10.218 20.443-15.121 28.545-6.219 62.19-29.181 64.916-56.489-24.876 3.888-50.334 3.757-68.644 52.947l-18.752 12.642c26.46-34.284 32.173-54.189 19.007-76.448-36.096 30.448-20.515 58.18-24.52 80.777l-30.12 25.028c25.394-34.914 16.581-54.126 10.095-71.7-27.693 22.072-21.323 60.879-16.88 75.264-3.615 3.492-7.23 4.803-10.845.187l1.004-82.49c28.79-9.476 52.038-25.733 64.735-66.008-25.581 4.925-48.122 11.03-63.716 55.238l-2.98 1.024.688-37c25.888-16.04 52.266-31.1 66.937-69.574-22.205 3.053-57.316 17.139-63.881 60.751l-3.667.982 1.12-44.088c24.55-15.06 49.852-28.578 59.898-73.303-23.024 8.55-45.725 18.149-58.115 61.26l-2.635-.087-.56-15.024c21.451-41.698 15.786-70.147-4.444-102.736-24.123 37.488-17.771 70.912-1.4 103l.127 16.375-2.454.456c-12.805-38.119-32.71-57.604-56.005-62.06 7.834 28.163 4.124 57.708 57.695 71.7l-1.018 44.708-2.845-.252c-11.21-46.295-35.707-48.582-57.142-61.007 4.832 34.212 23.854 61.348 59.477 69.407l.51 37.415-3.343-.835c-14.927-36.585-34.967-45.35-63.175-54.568 7.605 36.486 29.81 57.277 64.57 64.57l-.599 84.925c-3.025 4.611-6.05 2.523-9.076-.929 3.822-25.297 9.261-50.731-17.899-73.392-4.397 19.432-5.244 43.343 9.413 63.047 1.832 2.462-1.287 2.947.592 5.762l-25.028-24.1c7.257-42.205-9.845-62.081-26.391-82.468-11.305 29.713 3.125 55.137 19.86 80.177L78.8 334.59c-20.998-31.488-30.788-56.538-72.408-56.058 18.891 41.423 31.825 51.655 68.413 61.261l16.513 12.895c-48.188-19.74-64.797-9.683-79.07 6.276 29.263 12.616 57.208 17.139 81.74.694l5.732.579 22.737 17.479c-28.563-2.106-57.126-.105-85.69 17.988 29.73 5.305 60.375 24.206 87.222-6.874 2.572-2.977 8.841-9.384 10.18 6.874 3.573 43.358.475 118.524.72 167.325.011 1.981-.635 11.367-9.775 20.167-13.242 12.748-38.724.147-46.603 7.312-15.793 14.364-13.328 26.78-1.527 34.015 9.651 8.694 4.169 10.197-1.684 13.316-11.071 5.9-2.329 11.049-1.262 16.221 3.084-14.223 30.358-4.874 19.558-29.414-5.523-15.238 2.995-21.15 12.745-20.223 16.837 1.6 18.117 13.412 37.415-13.915-3.047 15.24-20.752 29.876-7.295 39.452 3.802 2.706 5.687 9.486 2.922 13.453-7.592 10.894-1.781 13.603 3.953 18.196.159-14.577 16.853-13.56 9.212-28.227-11.256-21.6 10.917-23.126 2.576-40.417 11.075 14.487 17.822 21.22 30.786 12.965 23.356-14.37 23.795.547 19.88 7.207-4.001 6.81-12.724 11.186 10.085 18.276 16.035 4.984 5.906 16.433 6.02 24.938 4.998-1.249 27.608-17.9 6.16-27.91-22.143-10.337-2.793-14.425-3.358-21.727-2.942-38.001-33.24-13.713-49.802-20.7-12.978-5.474-9.602-15.36-9.84-23.335z" style="fill:#fcef3c;fill-opacity:1;fill-rule:evenodd;stroke:#000;stroke-width:2.78290892px;stroke-linecap:butt;stroke-linejoin:miter;stroke-opacity:1"/><g style="display:inline"><path style="fill:url(#b);fill-opacity:1" d="M1.5 1.5v458.868c0 166.31 134.315 301.132 300 301.132s300-134.821 300-301.132V1.5H1.5z"/></g><g style="display:inline"><path style="fill:none;fill-opacity:1;stroke:#000;stroke-width:3;stroke-miterlimit:4;stroke-dasharray:none;stroke-opacity:1" d="M1.5 1.5v458.868c0 166.31 134.315 301.132 300 301.132s300-134.821 300-301.132V1.5H1.5z"/></g></svg>
